asset/images/sprite.svg

<svg xmlns="http://www.w3.org/2000/svg" xmlns:xlink="http://www.w3.org/1999/xlink"><symbol id="logo" viewBox="0 0 91 32"><path fill-rule="evenodd" clip-rule="evenodd" d="M75.337 9h2.806c4.104 0 7.12 2.999 7.12 7 0 4-3.02 6.998-7.12 6.998h-2.806c-4.108 0-7.135-3-7.135-6.998s3.027-7 7.135-7zm0 11.866h2.806c2.793 0 4.864-2.082 4.864-4.871 0-2.79-2.076-4.871-4.864-4.871h-2.806c-2.797 0-4.881 2.1-4.881 4.87 0 2.772 2.089 4.872 4.88 4.872zm-56.302-3.1c-.605 1.915-2.206 3.077-4.273 3.077h-2.81c-2.707 0-4.694-2.024-4.694-4.838s1.987-4.849 4.694-4.849h2.81c2.002 0 3.58 1.085 4.23 2.884h2.244c-.71-3.038-3.273-5.025-6.474-5.025h-2.81c-4 0-6.952 2.955-6.952 6.99s2.951 6.982 6.952 6.982h2.81c3.254 0 5.82-2.043 6.521-5.217l-2.248-.004zm6.808 2.89v-3.777h7.94v-2.03h-7.94v-3.525h8.441v-2.07H23.622v13.491h10.874v-2.09h-8.653zM37.17 9.254h7.58c3.977 0 6.854 2.829 6.854 6.742s-2.882 6.75-6.853 6.75h-7.58V9.253zm2.221 11.426h5.293c2.732 0 4.652-1.958 4.652-4.684s-1.92-4.675-4.652-4.675h-5.293v9.359zm24.2-3.24a4.09 4.09 0 002.75-3.918c0-2.487-1.935-4.268-4.54-4.268h-8.077v13.491h2.221v-4.993h5.37l2.904 4.993h2.492l-3.12-5.304zm-1.92-1.758h-5.726v-4.358h5.726c1.464 0 2.411.927 2.411 2.18 0 1.251-.94 2.178-2.411 2.178z"/></symbol><symbol id="icon-arrow" viewBox="0 0 16 16">
<path d="M7.24475 11L10.2448 8L7.24475 5" stroke-width="1.5" stroke-linecap="round" stroke-linejoin="round"/>
<rect x="0.75" y="0.75" rx="7.25" stroke-width="1.5"/>
</symbol><symbol id="icon-cedro-logo" viewBox="0 0 13 11"><path d="M5.862 0h.588a.14.14 0 01.095.037c.026.024.04.056.04.09v10.746a.123.123 0 01-.04.09.14.14 0 01-.095.037h-.588a6.2 6.2 0 01-2.244-.419A5.903 5.903 0 011.716 9.39a5.49 5.49 0 01-1.27-1.785A5.204 5.204 0 010 5.499C0 4.04.618 2.642 1.717 1.61 2.817.579 4.307 0 5.862 0zm7 .001H8.201c-.076 0-.138.058-.138.13v4.555c0 .072.062.13.138.13h4.661c.076 0 .138-.058.138-.13V.13c0-.071-.062-.129-.138-.129zm0 6.144H8.201c-.076 0-.138.057-.138.129v4.593c0 .071.062.13.138.13h4.661c.076 0 .138-.059.138-.13V6.274c0-.072-.062-.13-.138-.13z" opacity=".4"/></symbol><symbol id="icon-contacts-mail" viewBox="0 0 16 17"><path d="M2 2.5h12a.667.667 0 01.667.667v10.666a.667.667 0 01-.666.667H2a.666.666 0 01-.667-.667V3.167A.667.667 0 012 2.5zm11.334 2.825L8.049 10.06 2.667 5.31v7.856h10.667V5.325zM3.008 3.833l5.033 4.442 4.961-4.442H3.008z"/></symbol><symbol id="icon-contacts-map" viewBox="0 0 16 16"><path d="M8.001 9.333a2.67 2.67 0 002.667-2.667A2.67 2.67 0 008 4a2.67 2.67 0 00-2.666 2.667A2.67 2.67 0 008 9.333zm0-4A1.335 1.335 0 018 8a1.335 1.335 0 01-1.333-1.333c0-.735.598-1.333 1.333-1.333z"/><path d="M7.613 14.543a.665.665 0 00.774 0c.202-.144 4.966-3.583 4.946-7.876A5.34 5.34 0 008 1.333a5.339 5.339 0 00-5.333 5.33c-.02 4.297 4.744 7.736 4.946 7.88zM8 2.667c2.206 0 4 1.794 4 4.003.014 2.959-2.925 5.615-4 6.487-1.074-.872-4.014-3.53-4-6.49 0-2.206 1.794-4 4-4z"/></symbol><symbol id="icon-contacts-phone" viewBox="0 0 16 17"><path d="M5.951 7.475a8.21 8.21 0 003.074 3.074l.688-.963a.778.778 0 011.006-.23c1.1.6 2.315.962 3.565 1.06a.778.778 0 01.716.776v3.47a.778.778 0 01-.698.774c-.413.043-.828.064-1.246.064C6.398 15.5 1 10.102 1 3.444c0-.418.021-.833.064-1.246a.778.778 0 01.774-.698h3.47a.778.778 0 01.776.716 8.884 8.884 0 001.06 3.565.778.778 0 01-.23 1.006l-.963.688zM3.99 6.964l1.478-1.056a10.43 10.43 0 01-.854-2.852h-2.05c-.005.129-.008.259-.008.388 0 5.8 4.7 10.5 10.5 10.5.13 0 .26-.002.388-.007v-2.051a10.43 10.43 0 01-2.852-.854L9.536 12.51a9.675 9.675 0 01-1.235-.583l-.045-.026a9.766 9.766 0 01-3.657-3.657L4.573 8.2a9.678 9.678 0 01-.583-1.235z"/></symbol><symbol id="icon-contacts-time" viewBox="0 0 16 17"><path d="M8 1.5c-3.86 0-7 3.14-7 7s3.14 7 7 7 7-3.14 7-7-3.14-7-7-7zm0 12.6a5.607 5.607 0 01-5.6-5.6c0-3.088 2.512-5.6 5.6-5.6 3.088 0 5.6 2.512 5.6 5.6 0 3.088-2.512 5.6-5.6 5.6z"/><path d="M8.125 5.375h-1.25v3.384l2.058 2.058.884-.884-1.692-1.692V5.375z"/></symbol><symbol id="icon-heart" viewBox="0 0 24 24"><path d="M17.92 7.06a3.69 3.69 0 00-1.195-.784 3.74 3.74 0 00-4.015.785l-.71.698-.71-.698A3.718 3.718 0 008.685 6c-.978 0-1.915.38-2.606 1.06A3.59 3.59 0 005 9.62c0 .96.388 1.882 1.08 2.56l.71.698L12 18l5.21-5.12.71-.698c.343-.337.614-.736.8-1.175a3.565 3.565 0 000-2.771 3.617 3.617 0 00-.8-1.175v0z" stroke-width="1.5"/></symbol><symbol id="icon-password-eye" viewBox="0 0 24 24"><path d="M12 7c3.786 0 9 5 9 5s-5.214 5-9 5c-3.785 0-9-5-9-5s5.215-5 9-5z" stroke-opacity=".4" stroke-width="1.5"/><circle cx="12" cy="12" r="2" stroke-opacity=".4" stroke-width="1.5"/></symbol><symbol id="icon-person" viewBox="0 0 24 24"><path fill-rule="evenodd" clip-rule="evenodd" d="M9.25 9.4c0-1.475 1.22-2.692 2.75-2.692s2.75 1.217 2.75 2.693c0 1.475-1.22 2.692-2.75 2.692s-2.75-1.217-2.75-2.692zM12 5.209c-2.335 0-4.25 1.866-4.25 4.193 0 2.327 1.915 4.192 4.25 4.192s4.25-1.865 4.25-4.192S14.334 5.208 12 5.208zM8.375 18.666a2.692 2.692 0 012.692-2.693h1.865a2.692 2.692 0 012.692 2.693h1.5a4.192 4.192 0 00-4.192-4.193h-1.865a4.192 4.192 0 00-4.192 4.193h1.5z"/></symbol><symbol id="icon-phone" viewBox="0 0 24 24"><path d="M8.664 6H6.158s-.355 2.743 0 4.44c.441 2.11.944 3.412 2.467 4.935 1.523 1.523 2.825 2.026 4.934 2.467 1.698.355 4.441 0 4.441 0v-2.506a2 2 0 00-1.367-1.897l-1.124-.374a.68.68 0 00-.763.242 1.702 1.702 0 01-2.643.122l-1.438-1.618a1.829 1.829 0 01.096-2.53.732.732 0 00.185-.758l-.385-1.155A2 2 0 008.664 6z" stroke-width="1.5"/></symbol><symbol id="icon-product-favorite" viewBox="0 0 24 24"><path d="M16.84 3c-1.747 0-3.278.779-4.429 2.253-.153.196-.29.393-.411.583a7.445 7.445 0 00-.411-.583C10.439 3.779 8.907 3 7.16 3 3.86 3 1.5 5.763 1.5 9.079c0 3.79 3.107 7.364 10.075 11.585a.82.82 0 00.85 0C19.393 16.443 22.5 12.87 22.5 9.079 22.5 5.765 20.142 3 16.84 3z"/></symbol><symbol id="icon-search" viewBox="0 0 24 24"><path d="M14.889 14.976c1.091-.942 1.778-2.31 1.778-3.833 0-2.84-2.388-5.143-5.334-5.143C8.388 6 6 8.303 6 11.143s2.388 5.143 5.333 5.143a5.426 5.426 0 003.556-1.31zm0 0L18 18" stroke-width="1.5"/></symbol><symbol id="icon-socials-facebook" viewBox="0 0 32 32">
<rect rx="16" fill-opacity="0.08"/>
<path d="M16 9C12.1342 9 9 12.1531 9 16.0423C9 19.5567 11.5595 22.4697 14.9065 23V18.0784H13.1283V16.0423H14.9065V14.4907C14.9065 12.7243 15.9517 11.7503 17.55 11.7503C18.3158 11.7503 19.1181 11.8876 19.1181 11.8876V13.6195H18.2332C17.3651 13.6195 17.0935 14.1632 17.0935 14.7203V16.0408H19.0334L18.7233 18.077H17.0935V22.9986C20.4405 22.4711 23 19.5574 23 16.0423C23 12.1531 19.8658 9 16 9Z"/>
<rect x="0.5" y="0.5" rx="15.5" stroke-opacity="0.16"/>
</symbol><symbol id="icon-socials-instagram" viewBox="0 0 32 32">
<rect rx="16" fill-opacity="0.08"/>
<path d="M21.9647 13.5366C21.9573 13.032 21.864 12.5313 21.6853 12.0593C21.3727 11.2533 20.736 10.616 19.93 10.304C19.464 10.1286 18.9713 10.0346 18.4727 10.024C17.8313 9.9953 17.628 9.9873 16 9.9873C14.372 9.9873 14.1633 9.9873 13.5267 10.024C13.0287 10.0346 12.536 10.1286 12.07 10.304C11.264 10.616 10.6267 11.2533 10.3147 12.0593C10.1393 12.5253 10.0447 13.018 10.0353 13.516C10.0067 14.158 9.99799 14.3613 9.99799 15.9893C9.99799 17.6173 9.99799 17.8253 10.0353 18.4626C10.0453 18.9613 10.1393 19.4533 10.3147 19.9206C10.6273 20.726 11.264 21.3633 12.0707 21.6753C12.5347 21.8566 13.0273 21.9593 13.5273 21.9753C14.1693 22.004 14.3727 22.0126 16.0007 22.0126C17.6287 22.0126 17.8373 22.0126 18.474 21.9753C18.972 21.9653 19.4647 21.8713 19.9313 21.696C20.7373 21.3833 21.374 20.746 21.6867 19.9406C21.862 19.474 21.956 18.982 21.966 18.4826C21.9947 17.8413 22.0033 17.638 22.0033 16.0093C22.002 14.3813 22.002 14.1746 21.9647 13.5366ZM15.996 19.068C14.2933 19.068 12.914 17.6886 12.914 15.986C12.914 14.2833 14.2933 12.904 15.996 12.904C17.6973 12.904 19.078 14.2833 19.078 15.986C19.078 17.6886 17.6973 19.068 15.996 19.068ZM19.2007 13.5086C18.8027 13.5086 18.482 13.1873 18.482 12.79C18.482 12.3926 18.8027 12.0713 19.2007 12.0713C19.5973 12.0713 19.9187 12.3926 19.9187 12.79C19.9187 13.1873 19.5973 13.5086 19.2007 13.5086Z"/>
<path d="M15.996 17.988C17.1017 17.988 17.998 17.0917 17.998 15.986C17.998 14.8803 17.1017 13.984 15.996 13.984C14.8903 13.984 13.994 14.8803 13.994 15.986C13.994 17.0917 14.8903 17.988 15.996 17.988Z"/>
<rect x="0.5" y="0.5" rx="15.5" stroke-opacity="0.16"/>
</symbol><symbol id="icon-socials-vk" viewBox="0 0 32 32">
<rect rx="16"/>
<path d="M22.3859 12.57C22.4793 12.26 22.3859 12.0327 21.9446 12.0327H20.4826C20.1106 12.0327 19.9406 12.2294 19.8473 12.4454C19.8473 12.4454 19.1039 14.258 18.0506 15.4334C17.7106 15.7754 17.5553 15.8834 17.3699 15.8834C17.2773 15.8834 17.1426 15.7754 17.1426 15.4654V12.57C17.1426 12.198 17.0353 12.0327 16.7253 12.0327H14.4279C14.1959 12.0327 14.0559 12.2047 14.0559 12.3687C14.0559 12.7207 14.5826 12.802 14.6366 13.794V15.946C14.6366 16.4174 14.5519 16.5034 14.3653 16.5034C13.8699 16.5034 12.6646 14.684 11.9493 12.6014C11.8099 12.1967 11.6693 12.0334 11.2959 12.0334H9.83459C9.41659 12.0334 9.33325 12.23 9.33325 12.446C9.33325 12.834 9.82859 14.754 11.6406 17.2934C12.8486 19.0274 14.5493 19.9674 16.0986 19.9674C17.0273 19.9674 17.1419 19.7587 17.1419 19.3987V18.088C17.1419 17.6707 17.2306 17.5867 17.5246 17.5867C17.7406 17.5867 18.1126 17.696 18.9799 18.5314C19.9706 19.522 20.1346 19.9667 20.6913 19.9667H22.1526C22.5699 19.9667 22.7786 19.758 22.6586 19.346C22.5273 18.936 22.0539 18.3394 21.4259 17.6334C21.0846 17.2307 20.5746 16.7974 20.4193 16.5807C20.2026 16.3014 20.2653 16.178 20.4193 15.93C20.4193 15.93 22.2006 13.4227 22.3859 12.57Z"/>
<rect x="0.5" y="0.5" rx="15.5"/>
</symbol><symbol id="icon-suitcase" viewBox="0 0 24 24"><path d="M8.467 9.333H6a1 1 0 00-1 1V17a1 1 0 001 1h11a1 1 0 001-1v-6.667a1 1 0 00-1-1h-2.467m-6.066 0v3.034m0-3.034h6.066m-6.066 0v-1.3A3.033 3.033 0 0111.5 5v0a3.033 3.033 0 013.033 3.033v1.3m0 3.034V9.333" stroke-width="1.5"/></symbol></svg>

<svg xmlns="http://www.w3.org/2000/svg" xmlns:xlink="http://www.w3.org/1999/xlink"><symbol id="logo" viewBox="0 0 91 32"><path fill-rule="evenodd" clip-rule="evenodd" d="M75.337 9h2.806c4.104 0 7.12 2.999 7.12 7 0 4-3.02 6.998-7.12 6.998h-2.806c-4.108 0-7.135-3-7.135-6.998s3.027-7 7.135-7zm0 11.866h2.806c2.793 0 4.864-2.082 4.864-4.871 0-2.79-2.076-4.871-4.864-4.871h-2.806c-2.797 0-4.881 2.1-4.881 4.87 0 2.772 2.089 4.872 4.88 4.872zm-56.302-3.1c-.605 1.915-2.206 3.077-4.273 3.077h-2.81c-2.707 0-4.694-2.024-4.694-4.838s1.987-4.849 4.694-4.849h2.81c2.002 0 3.58 1.085 4.23 2.884h2.244c-.71-3.038-3.273-5.025-6.474-5.025h-2.81c-4 0-6.952 2.955-6.952 6.99s2.951 6.982 6.952 6.982h2.81c3.254 0 5.82-2.043 6.521-5.217l-2.248-.004zm6.808 2.89v-3.777h7.94v-2.03h-7.94v-3.525h8.441v-2.07H23.622v13.491h10.874v-2.09h-8.653zM37.17 9.254h7.58c3.977 0 6.854 2.829 6.854 6.742s-2.882 6.75-6.853 6.75h-7.58V9.253zm2.221 11.426h5.293c2.732 0 4.652-1.958 4.652-4.684s-1.92-4.675-4.652-4.675h-5.293v9.359zm24.2-3.24a4.09 4.09 0 002.75-3.918c0-2.487-1.935-4.268-4.54-4.268h-8.077v13.491h2.221v-4.993h5.37l2.904 4.993h2.492l-3.12-5.304zm-1.92-1.758h-5.726v-4.358h5.726c1.464 0 2.411.927 2.411 2.18 0 1.251-.94 2.178-2.411 2.178z"/></symbol><symbol id="icon-arrow" viewBox="0 0 16 16"><path d="M7.245 11l3-3-3-3" stroke-width="1.5" stroke-linecap="round" stroke-linejoin="round"/><rect x=".75" y=".75" rx="7.25" stroke-width="1.5"/></symbol><symbol id="icon-cedro-logo" viewBox="0 0 13 11"><path d="M5.862 0h.588a.14.14 0 01.095.037c.026.024.04.056.04.09v10.746a.123.123 0 01-.04.09.14.14 0 01-.095.037h-.588a6.2 6.2 0 01-2.244-.419A5.903 5.903 0 011.716 9.39a5.49 5.49 0 01-1.27-1.785A5.204 5.204 0 010 5.499C0 4.04.618 2.642 1.717 1.61 2.817.579 4.307 0 5.862 0zm7 .001H8.201c-.076 0-.138.058-.138.13v4.555c0 .072.062.13.138.13h4.661c.076 0 .138-.058.138-.13V.13c0-.071-.062-.129-.138-.129zm0 6.144H8.201c-.076 0-.138.057-.138.129v4.593c0 .071.062.13.138.13h4.661c.076 0 .138-.059.138-.13V6.274c0-.072-.062-.13-.138-.13z" opacity=".4"/></symbol><symbol id="icon-contacts-mail" viewBox="0 0 16 17"><path d="M2 2.5h12a.667.667 0 01.667.667v10.666a.667.667 0 01-.666.667H2a.666.666 0 01-.667-.667V3.167A.667.667 0 012 2.5zm11.334 2.825L8.049 10.06 2.667 5.31v7.856h10.667V5.325zM3.008 3.833l5.033 4.442 4.961-4.442H3.008z"/></symbol><symbol id="icon-contacts-map" viewBox="0 0 16 16"><path d="M8.001 9.333a2.67 2.67 0 002.667-2.667A2.67 2.67 0 008 4a2.67 2.67 0 00-2.666 2.667A2.67 2.67 0 008 9.333zm0-4A1.335 1.335 0 018 8a1.335 1.335 0 01-1.333-1.333c0-.735.598-1.333 1.333-1.333z"/><path d="M7.613 14.543a.665.665 0 00.774 0c.202-.144 4.966-3.583 4.946-7.876A5.34 5.34 0 008 1.333a5.339 5.339 0 00-5.333 5.33c-.02 4.297 4.744 7.736 4.946 7.88zM8 2.667c2.206 0 4 1.794 4 4.003.014 2.959-2.925 5.615-4 6.487-1.074-.872-4.014-3.53-4-6.49 0-2.206 1.794-4 4-4z"/></symbol><symbol id="icon-contacts-phone" viewBox="0 0 16 17"><path d="M5.951 7.475a8.21 8.21 0 003.074 3.074l.688-.963a.778.778 0 011.006-.23c1.1.6 2.315.962 3.565 1.06a.778.778 0 01.716.776v3.47a.778.778 0 01-.698.774c-.413.043-.828.064-1.246.064C6.398 15.5 1 10.102 1 3.444c0-.418.021-.833.064-1.246a.778.778 0 01.774-.698h3.47a.778.778 0 01.776.716 8.884 8.884 0 001.06 3.565.778.778 0 01-.23 1.006l-.963.688zM3.99 6.964l1.478-1.056a10.43 10.43 0 01-.854-2.852h-2.05c-.005.129-.008.259-.008.388 0 5.8 4.7 10.5 10.5 10.5.13 0 .26-.002.388-.007v-2.051a10.43 10.43 0 01-2.852-.854L9.536 12.51a9.675 9.675 0 01-1.235-.583l-.045-.026a9.766 9.766 0 01-3.657-3.657L4.573 8.2a9.678 9.678 0 01-.583-1.235z"/></symbol><symbol id="icon-contacts-time" viewBox="0 0 16 17"><path d="M8 1.5c-3.86 0-7 3.14-7 7s3.14 7 7 7 7-3.14 7-7-3.14-7-7-7zm0 12.6a5.607 5.607 0 01-5.6-5.6c0-3.088 2.512-5.6 5.6-5.6 3.088 0 5.6 2.512 5.6 5.6 0 3.088-2.512 5.6-5.6 5.6z"/><path d="M8.125 5.375h-1.25v3.384l2.058 2.058.884-.884-1.692-1.692V5.375z"/></symbol><symbol id="icon-heart" viewBox="0 0 24 24"><path d="M17.92 7.06a3.69 3.69 0 00-1.195-.784 3.74 3.74 0 00-4.015.785l-.71.698-.71-.698A3.718 3.718 0 008.685 6c-.978 0-1.915.38-2.606 1.06A3.59 3.59 0 005 9.62c0 .96.388 1.882 1.08 2.56l.71.698L12 18l5.21-5.12.71-.698c.343-.337.614-.736.8-1.175a3.565 3.565 0 000-2.771 3.617 3.617 0 00-.8-1.175v0z" stroke-width="1.5"/></symbol><symbol id="icon-password-eye" viewBox="0 0 24 24"><path d="M12 7c3.786 0 9 5 9 5s-5.214 5-9 5c-3.785 0-9-5-9-5s5.215-5 9-5z" stroke-opacity=".4" stroke-width="1.5"/><circle cx="12" cy="12" r="2" stroke-opacity=".4" stroke-width="1.5"/></symbol><symbol id="icon-person" viewBox="0 0 24 24"><path fill-rule="evenodd" clip-rule="evenodd" d="M9.25 9.4c0-1.475 1.22-2.692 2.75-2.692s2.75 1.217 2.75 2.693c0 1.475-1.22 2.692-2.75 2.692s-2.75-1.217-2.75-2.692zM12 5.209c-2.335 0-4.25 1.866-4.25 4.193 0 2.327 1.915 4.192 4.25 4.192s4.25-1.865 4.25-4.192S14.334 5.208 12 5.208zM8.375 18.666a2.692 2.692 0 012.692-2.693h1.865a2.692 2.692 0 012.692 2.693h1.5a4.192 4.192 0 00-4.192-4.193h-1.865a4.192 4.192 0 00-4.192 4.193h1.5z"/></symbol><symbol id="icon-phone" viewBox="0 0 24 24"><path d="M8.664 6H6.158s-.355 2.743 0 4.44c.441 2.11.944 3.412 2.467 4.935 1.523 1.523 2.825 2.026 4.934 2.467 1.698.355 4.441 0 4.441 0v-2.506a2 2 0 00-1.367-1.897l-1.124-.374a.68.68 0 00-.763.242 1.702 1.702 0 01-2.643.122l-1.438-1.618a1.829 1.829 0 01.096-2.53.732.732 0 00.185-.758l-.385-1.155A2 2 0 008.664 6z" stroke-width="1.5"/></symbol><symbol id="icon-product-favorite" viewBox="0 0 24 24"><path d="M16.84 3c-1.747 0-3.278.779-4.429 2.253-.153.196-.29.393-.411.583a7.445 7.445 0 00-.411-.583C10.439 3.779 8.907 3 7.16 3 3.86 3 1.5 5.763 1.5 9.079c0 3.79 3.107 7.364 10.075 11.585a.82.82 0 00.85 0C19.393 16.443 22.5 12.87 22.5 9.079 22.5 5.765 20.142 3 16.84 3z"/></symbol><symbol id="icon-search" viewBox="0 0 24 24"><path d="M14.889 14.976c1.091-.942 1.778-2.31 1.778-3.833 0-2.84-2.388-5.143-5.334-5.143C8.388 6 6 8.303 6 11.143s2.388 5.143 5.333 5.143a5.426 5.426 0 003.556-1.31zm0 0L18 18" stroke-width="1.5"/></symbol><symbol id="icon-socials-facebook" viewBox="0 0 32 32"><rect rx="16" fill-opacity=".08"/><path d="M16 9c-3.866 0-7 3.153-7 7.042 0 3.515 2.56 6.428 5.906 6.958v-4.922h-1.778v-2.036h1.778v-1.551c0-1.767 1.046-2.74 2.644-2.74.766 0 1.568.137 1.568.137v1.732h-.885c-.868 0-1.14.543-1.14 1.1v1.32h1.94l-.31 2.037h-1.63v4.922C20.441 22.47 23 19.557 23 16.042 23 12.153 19.866 9 16 9z"/><rect x=".5" y=".5" rx="15.5" stroke-opacity=".16"/></symbol><symbol id="icon-socials-instagram" viewBox="0 0 32 32"><rect rx="16" fill-opacity=".08"/><path d="M21.965 13.537a4.354 4.354 0 00-.28-1.478 3.073 3.073 0 00-1.755-1.755 4.401 4.401 0 00-1.457-.28c-.642-.029-.845-.037-2.473-.037s-1.837 0-2.473.037a4.4 4.4 0 00-1.457.28 3.071 3.071 0 00-1.755 1.755 4.37 4.37 0 00-.28 1.457c-.028.642-.037.845-.037 2.473s0 1.836.037 2.474c.01.498.104.99.28 1.458a3.07 3.07 0 001.756 1.754 4.39 4.39 0 001.456.3c.642.029.846.038 2.474.038 1.628 0 1.836 0 2.473-.038a4.4 4.4 0 001.457-.279 3.077 3.077 0 001.756-1.755 4.39 4.39 0 00.279-1.458c.029-.642.037-.845.037-2.474-.001-1.628-.001-1.834-.038-2.472zm-5.969 5.531a3.081 3.081 0 11-.001-6.163 3.081 3.081 0 01.001 6.163zm3.205-5.56a.718.718 0 11-.002-1.435.718.718 0 01.002 1.436z"/><path d="M15.996 17.988a2.002 2.002 0 100-4.004 2.002 2.002 0 000 4.004z"/><rect x=".5" y=".5" rx="15.5" stroke-opacity=".16"/></symbol><symbol id="icon-socials-vk" viewBox="0 0 32 32"><rect rx="16"/><path d="M22.386 12.57c.093-.31 0-.537-.441-.537h-1.462c-.372 0-.542.196-.636.412 0 0-.743 1.813-1.796 2.988-.34.342-.496.45-.681.45-.093 0-.227-.108-.227-.418V12.57c0-.372-.108-.537-.418-.537h-2.297c-.232 0-.372.172-.372.336 0 .352.527.433.58 1.425v2.152c0 .471-.084.557-.27.557-.496 0-1.701-1.819-2.417-3.902-.14-.404-.28-.568-.653-.568H9.835c-.418 0-.502.197-.502.413 0 .388.496 2.308 2.308 4.847 1.208 1.734 2.908 2.674 4.458 2.674.928 0 1.043-.208 1.043-.568v-1.311c0-.417.089-.501.383-.501.216 0 .588.109 1.455.944.99.991 1.155 1.436 1.711 1.436h1.462c.417 0 .626-.209.506-.621-.132-.41-.605-1.007-1.233-1.713-.341-.402-.851-.836-1.007-1.052-.216-.28-.154-.403 0-.651 0 0 1.782-2.507 1.967-3.36z"/><rect x=".5" y=".5" rx="15.5"/></symbol><symbol id="icon-submenu-indicator" viewBox="0 0 16 16">
<path d="M3 6L8 11L13 6" stroke-width="1.5"/>
</symbol><symbol id="icon-suitcase" viewBox="0 0 24 24"><path d="M8.467 9.333H6a1 1 0 00-1 1V17a1 1 0 001 1h11a1 1 0 001-1v-6.667a1 1 0 00-1-1h-2.467m-6.066 0v3.034m0-3.034h6.066m-6.066 0v-1.3A3.033 3.033 0 0111.5 5v0a3.033 3.033 0 013.033 3.033v1.3m0 3.034V9.333" stroke-width="1.5"/></symbol></svg>
